X:1
T:Title
%%score [ 1 2 3 4 ]
L:1/8
Q:1/4=120
M:4/4
K:Eb
V:1 treble nm="S."
V:2 treble nm="A."
V:3 treble-8 nm="T."
V:4 bass nm="B."
V:1
 E3 F | G2 F2 A2 G2 |"^Einigkeit und Recht und Freiheit" FD E2 c2 B2 | A2 G2 F2 GE | B4 :| %5
w: Ei- nig-|keit und Recht und|Frei * heit für das|deut- sche Va- ter *|land!|
w: Da- nach|lasst uns al- le|stre * ben brü- der-|lich mit Herz und *|Hand!|
[M:4/4] F2 G2 | FD B,2 A2 G2 | FD B,2 B2 A2 | G3 G =A2 AB | B4 |: e3 d | dc B2 c3 B | %12
w: Ei- nig-|keit * und Recht und|Frei * heit sind des|Glü- ckes Un- ter *|pfand.|Blüh im|Glan * ze die- ses|
w: |||||||
 BA G2 F3 G/A/ | Bc AF E2 GF | E4 :| %15
w: Glü * ckes, blü- he, *|deut * sches * Va- ter *|land!|
w: |||
V:2
 E3 E | E2 D2 B,2 B,2 | B,2 B,2 CD E2 | F2 E2 F2 E2 | D4 :|[M:4/4] B,2 B,2 | B,2 B,2 B,2 B,2 | %7
w: Ei- nig-|keit und Recht und|Frei- heit für * das|deut- sche Va- ter-|land!|Ei- nig-|keit und Recht und|
w: Da- nach|lasst uns al- le|stre- ben brü- * der-|lich mit Herz und|Hand!|||
 B,2 B,2 B,2 CD | E3 E E3 E | D4 |: E3 E | E2 E2 E3 E | F2 E2 D2 D2 | E2 EC B,2 D2 | B,4 :| %15
w: Frei- heit sind des *|Glü- ckes Un- ter-|pfand.|Blüh im|Glan- ze die- ses|Glü- ckes, blü- he,|deut- sches * Va- ter-|land!|
w: ||||||||
V:3
 G3 A | B2 B2 F2 G2 | AF G2 A2 B2 | B2 B2 c2 c2 | F4 :|[M:4/4][K:treble-8] D2 E2 | DF D2 F2 E2 | %7
w: Ei- nig-|keit und Recht und|Frei * heit für das|deut- sche Va- ter-|land!|Ei- nig-|keit * und Recht und|
w: Da- nach|lasst uns al- le|stre * ben brü- der-|lich mit Herz und|Hand!|||
 DF D2 G2 F2 | E3 E F3 c | B4 |: B3 B | A2 G2 A3 B | B2 B2 B2 B2 | BE cA G2 BA | G4 :| %15
w: Frei * heit sind des|Glü- ckes Un- ter-|pfand.|Blüh im|Glan- ze die- ses|Glü- ckes, blü- he,|deut * sches * Va- ter *|land!|
w: ||||||||
V:4
 E,3 E, | E,2 B,,2 D,2 E,2 | B,,2 E,2 A,2 G,2 | D,2 E,2 A,,2 =A,,2 | B,,4 :|[M:4/4] B,,2 B,,2 | %6
w: Ei- nig-|keit und Recht und|Frei- heit für das|deut- sche Va- ter-|land!|Ei- nig-|
w: Da- nach|lasst uns al- le|stre- ben brü- der-|lich mit Herz und|Hand!||
 B,,2 B,,2 D,2 E,2 | B,,2 B,,2 G,,2 A,,B,, | C,3 C, F,3 F, | B,,4 |: %10
w: keit und Recht und|Frei- heit sind des *|Glü- ckes Un- ter-|pfand.|
w: ||||
"^This edition  Andrew Sims 2011" G,3 G, | A,2 E,2 A,3 G, | D,2 E,2 B,,2 A,,2 | %13
w: Blüh im|Glan- ze die- ses|Glü- ckes, blü- he,|
w: |||
 G,,2 A,,2 B,,2 B,,2 | E,4 :| %15
w: deut- sches Va- ter-|land!|
w: ||

